X:4496
T:My Darling Boy is Far Away
O:england
B:Joyce, P. W.; "Old Irish Folk Music and Songs"
R:song air
L:1/8
M:C
K:F
"Slow"\
B>c|d2 BG B2 A2|G4 F2 G>A|B2 AG B2 c2|d3 c B2 c2|
d2 BG B2 A2|G4 F2 G>A|B3 c d2 A2|G2 G2 G2||d>e|
f2 dc Bcde|f4 d2 (3def|g3 a b2 ag|f2 ef dcBc|
d2 BG B2 A2|G4 F2 G>A|B3 c d2 A2|G2 G2 G2||
